X:0744
T:Miss Isabella Murdoch's Reel.
M:C|
L:1/8
Q:1/4=120
I: :: ||
N:bar 10 is printed |g>ef>d Bee ag|
Z:Jack Campin * www.campin.me.uk * 2009
K:D
G   |F<DF>A d>AB>G|F>Ad>f e>EE>G  |F<DF>A d>AB>G|E>ege  fdd:|
a/g/|f>ad>a b>da>d|g>ef>d Be ea/g/|f>ad>a b>da>d|g>ea>g fdd
a/g/|f>ad>a b>da>d|g>ef>d Be ea/g/|f>ag>b a>df>d|B>eg>e fdd|]

